!!!SOCIAL_FUNCTION:	songs of games played in a ceremonial manner
!!!PDT:	1932
!!!OTL: No_4_Song_of_Wapunomitawe.krn
!!!REG: Wisconsin
!!!LANG: Non-Tone
!!!LING_GROUP: Algonquin
**kern
*staff1
=1-
*clefF4
*k[f#c#g#d#]
*M2/4
4r
8B\L
8B\J
=2
4c#\
8B\L
8B\J
=3||
*M3/4
4B\
8B\L
8B\J
8B\L
8A\J
=4||
*M2/4
4G#\
8F#\L
8F#\J
=5
4F#\
8F#\L
8F#\J
=6
8F#\
8r
8B\L
8A\J
=7
4G#\
8F#\L
8F#\J
=8||
*M3/4
4F#\
8F#\L
8F#\J
8F#\L
8G#\J
=9||
*M2/4
4F#\
8E\L
8E\J
=10||
*M3/4
4E\
8E\L
8E\J
8E\L
8D#\J
=11||
*M2/4
8C#/
8r
8E\L
8E\J
=12||
*M3/4
4E\
8E\L
8E\J
8E\L
8D#\J
=13||
*M2/4
4C#/
8BB/L
8BB/J
=14
4BB/
8BB/L
8BB/J
=15
8BB/
8r
8G#\L
8G#\J
=16
4G#\
8F#\L
8F#\J
=17||
*M3/4
4F#\
8F#\L
8F#\J
8F#\L
8G#\J
=18||
*M2/4
4F#\
8E\L
8E\J
=19||
*M3/4
4E\
8E\L
8E\J
8E\L
8D#\J
=20||
*M2/4
8C#/
8r
8E\L
8E\J
=21||
*M3/4
4E\
8E\L
8E\J
8E\L
8D#\J
=22||
*M2/4
4C#/
8BB/L
8BB/J
=23
4BB/
8BB/L
8BB/J
=24
8BB/
8r
4r
==
*-
